packages/kaspersky-hexa-ui-icons/src/iconsSVGs/16/Integration.svg

<svg width="16" height="16" viewBox="0 0 16 16" fill="none" xmlns="http://www.w3.org/2000/svg">
<path fill-rule="evenodd" clip-rule="evenodd" d="M6.95837 3.22284C6.95837 1.93412 5.91365 0.889412 4.62494 0.889412C3.33622 0.889412 2.2915 1.93412 2.2915 3.22284C2.2915 4.51156 3.33622 5.55627 4.62494 5.55627C5.24512 5.55627 5.80879 5.31433 6.22671 4.91968L8.98869 6.61788C9.14872 6.20742 9.38121 5.83322 9.67045 5.51099L6.88661 3.79934C6.93346 3.61496 6.95837 3.42181 6.95837 3.22284ZM4.62494 2.18941C5.19568 2.18941 5.65837 2.65209 5.65837 3.22284C5.65837 3.79359 5.19568 4.25628 4.62494 4.25628C4.05419 4.25628 3.5915 3.79359 3.5915 3.22284C3.5915 2.65209 4.05419 2.18941 4.62494 2.18941Z" fill="black"/>
<path fill-rule="evenodd" clip-rule="evenodd" d="M14.7086 7.9372C14.7086 6.64848 13.6639 5.60377 12.3752 5.60377C11.0865 5.60377 10.0417 6.64848 10.0417 7.9372C10.0417 8.17526 10.0774 8.405 10.1437 8.62136L7.32988 10.3514C7.61909 10.6737 7.85155 11.0479 8.01154 11.4584L10.8567 9.70901C11.2648 10.0591 11.7953 10.2706 12.3752 10.2706C13.6639 10.2706 14.7086 9.22592 14.7086 7.9372ZM12.3752 6.90377C12.9459 6.90377 13.4086 7.36645 13.4086 7.9372C13.4086 8.50795 12.9459 8.97063 12.3752 8.97063C11.8044 8.97063 11.3417 8.50795 11.3417 7.9372C11.3417 7.36645 11.8044 6.90377 12.3752 6.90377Z" fill="black"/>
<path fill-rule="evenodd" clip-rule="evenodd" d="M5.20861 6.80964V10.5175C6.21488 10.7767 6.95837 11.6902 6.95837 12.7774C6.95837 14.0661 5.91365 15.1108 4.62494 15.1108C3.33622 15.1108 2.2915 14.0661 2.2915 12.7774C2.2915 11.7386 2.97034 10.8583 3.90861 10.556V6.78568C4.1402 6.83199 4.37973 6.85628 4.62494 6.85628C4.82362 6.85628 5.01859 6.84033 5.20861 6.80964ZM4.62494 11.7439C5.19568 11.7439 5.65837 12.2066 5.65837 12.7774C5.65837 13.3481 5.19568 13.8108 4.62494 13.8108C4.05419 13.8108 3.5915 13.3481 3.5915 12.7774C3.5915 12.2066 4.05419 11.7439 4.62494 11.7439Z" fill="black"/>
</svg>

<svg xmlns="http://www.w3.org/2000/svg" width="16" height="16" fill="none" viewBox="0 0 16 16"><path d="M0 16h16V0H0z"/><path fill="#000" fill-rule="evenodd" d="M6.9584 3.2227c0-1.2887-1.0448-2.3334-2.3335-2.3334S2.2915 1.934 2.2915 3.2227s1.0447 2.3334 2.3334 2.3334a2.325 2.325 0 0 0 1.6018-.6366l2.762 1.6982c.16-.4104.3925-.7846.6817-1.1068L6.8866 3.7992a2.34 2.34 0 0 0 .0718-.5765M4.6249 2.1893c.5708 0 1.0335.4627 1.0335 1.0334s-.4627 1.0334-1.0335 1.0334c-.5707 0-1.0334-.4626-1.0334-1.0334 0-.5707.4627-1.0334 1.0334-1.0334M14.7086 7.937c0-1.2888-1.0447-2.3335-2.3334-2.3335s-2.3335 1.0447-2.3335 2.3335c0 .238.0357.4678.1019.6841l-2.8137 1.7301a3.63 3.63 0 0 1 .6816 1.1069l2.8452-1.7493a2.324 2.324 0 0 0 1.5185.5616c1.2887 0 2.3334-1.0447 2.3334-2.3334m-9.5 2.5803V6.8095a3.66 3.66 0 0 1-.5837.0466 3.65 3.65 0 0 1-.7163-.0706v3.7703c-.9383.3023-1.6171 1.1826-1.6171 2.2214 0 1.2888 1.0447 2.3335 2.3334 2.3335s2.3335-1.0447 2.3335-2.3335c0-1.0871-.7435-2.0006-1.7498-2.2598m7.1666-3.6138c.5707 0 1.0334.4627 1.0334 1.0335 0 .5707-.4627 1.0334-1.0334 1.0334s-1.0335-.4627-1.0335-1.0334.4627-1.0335 1.0335-1.0335m-6.7168 5.8736c0-.5707-.4627-1.0334-1.0335-1.0334-.5707 0-1.0334.4627-1.0334 1.0334s.4627 1.0335 1.0334 1.0335 1.0335-.4627 1.0335-1.0335"/></svg>
